X: 1
T: Haapavesi valssi
C: Keith Murphy
R: waltz
Z: 2011 John Chambers <jc:trillian.mit.edu>
M: 3/4
L: 1/8
K: D
AcA |\
"D"cd dA cA | cd dA cd | "Em"e2 eg fd | "A7"e2 A2 Bc |\
"D"cd dA cA | cd dA cd | "Em"e2 eg "A7"e{d}c | "D"d3 :|
|: efg |\
"D"a2 ag fd | "G"g3 f- fg | "A7"eA Ag fg | e2 A2 fg |\
"D"a2 ag fd | "G"g3 f- fg | "Em"e2 eg "A7"e{d}c | "D"d3 :|
T: the Rose by the Door
C: Andrea Hoag (1985)
Z: John Chambers <jc:trillian.mit.edu>
M: 3/4
L: 1/8
K: D
DE \
| "D"F4 GF | "A"E4 E2 | "Bm"F2 G2 A2 | "G"B4 d2 \
| "D"A F3 A2 | "Bm"F2 E3 D | "Em"E6- | "A7"E4 ||
yDE \
| "D"F2 G3 F | "A"E4 E2 | "Bm"F2 G2 A2 | "G"B4 cd \
| "D"A F3 A2 | "A7"F2 E3 D | "D"D6- | D4 |]
ydc \
| "G"B4 BA | "D"A4 d2 | "A7"e d3 e2 | "D"f4 f2 \
| "Em"e2 d2 e2 | "F#m"f a3 a2 | "G"b4 af |"A7"e4 ||
y2e2 \
| "D"f2 g3 f | "A"e4 dc | "Bm"B A3 F2 | "F#m"A4 dc \
| "G"B4 AF | "A7"E4 ED | "D"D6- | D4 |]

